X: 1554
T: In Eleven Months and Ten More Days
B: australian traditional tunes wiki
M:6/8
L:1/8
R: Jig
Q: 3/8=100
K:G
V:1 
c|"G"BGBB2A|G2G GBG|"C"A2EE2E|"Am"A3-A2G|"D7"FEF FEF|FEFF2E|DGDE2F|"G"G3-G2:|
|:d|"G"Bddd2B|"C"ceee2c|"G"Bdd dcB|"D7"cAAA2d|"G"Bddd2B|"C"ceee2c|"G"Bdd "D7"AcA|"G"G3-G2:|
|:d|"G"gdg gfe|d2Bd2B|gdg gdg|"D7"a3-a2d|"G"bgb "Em"bgb|"C"c'ac' "Am"efe|"D7"dgd fef|"G"g3-g2:|
% abcbook-tune_id 6342d53ae2fac29599717d49


% abcbook-boost 0
% abcbook-tablature 
% abcbook-transpose 
% abcbook-lastupdated 1665324370778
% abcbook-soundfonts 
% abcbook-repeats 1
% NFF Book 2016

